!!!!SEGMENT: pl-cz--iii-685--007_volckmer-augustin--missa-ex-b-pleni.krn
!!!cenid: 17xx:1193
!!!COM: Volckmer, Augustin
!!!COM-rismID:
!!!CDT: 1755-~1820
!!!CNT:
!!!OPR: Missa ex B
!!!OTL: Pleni
!!!OMV: 007
!!!PDT:
!!!AGN: Sacred; Mass
!!!SMS-siglum: PL-CZ
!!!SMS-shelfmark: III-685
!!!SMS-shelfwork: 001-007 M
!!!SMS-variant:
!!!SMS-altvar:
!!!NIFC-rismSourceID: 300001397
!!!NIFC-islandoraID: pl-cz:40224
!!!URL-pdf-islandora: https://repozytorium.nifc.pl/islandora/object/pl-cz%3A40224/datastream/PDF/view
!!!URL-scan:
!!!ONB-nifc: UWAGA: części Mszy: Kyrie, Gloria, Graduale (instrumentalne), Credo, Eia chori jubilemus, Sanctus, Pleni, Benedictus, Agnus Dei, Dona nobis, Tantum ergo sacramentum
!!!AIN: 1 alto 1 bass 2 clars 2 cor 1 organ 1 soprn 1 tenor 1 viola 2 violn
!!!key: B-
**kern	**fba	**dynam	**kern	**dynam	**kern	**dynam	**kern	**dynam	**kern	**text	**kern	**text	**kern	**text	**kern	**text	**dynam	**kern	**dynam	**kern	**dynam	**kern	**dynam	**kern	**dynam
*	*	*	*group4	*	*group4	*	*group4	*	*group3	*	*group3	*	*group3	*	*group3	*	*	*group2	*	*group2	*	*group1	*	*group1	*
*staff12	*	*	*staff11	*	*staff10	*	*staff9	*	*staff8	*staff8	*staff7	*staff7	*staff6	*staff6	*staff5	*staff5	*	*staff4	*	*staff3	*	*staff2	*	*staff1	*
*I"Organo. e Fagotti.	*	*	*I"Viola. obl.	*	*I"Violino Secundo.	*	*I"Violino Primo.	*	*I"Basso	*	*I"Tenore	*	*I"Alto	*	*I"Canto	*	*	*I"Corno. Secundo in B Baſson	*	*I"Corno Primo. in B Baſson.	*	*I"Clarinetto Secundo	*	*I"Clarinetto Primo.	*
*I'org e fag	*	*	*I'vla	*	*I'vl 2	*	*I'vl 1	*	*I'B	*	*I'T	*	*I'A	*	*I'S	*	*	*I'cor 2	*	*I'cor 1	*	*I'cl 2	*	*I'cl 1	*
*Iorgan	*	*	*Iviola	*	*Ivioln	*	*Ivioln	*	*Ibass	*	*Itenor	*	*Ialto	*	*Isoprn	*	*	*Icor	*	*Icor	*	*Iclars	*	*Iclars	*
*Ifagot	*	*	*	*	*	*	*	*	*	*	*	*	*	*	*	*	*	*	*	*	*	*	*	*	*
*ICklav	*	*	*ICstr	*	*ICstr	*	*ICstr	*	*ICvox	*	*ICvox	*	*ICvox	*	*ICvox	*	*	*ICbras	*	*ICbras	*	*ICww	*	*ICww	*
*ICww	*	*	*	*	*	*	*	*	*	*	*	*	*	*	*	*	*	*	*	*	*	*	*	*	*
*	*	*	*	*	*	*	*	*	*IGcoro	*	*IGcoro	*	*IGcoro	*	*IGcoro	*	*	*	*	*	*	*	*	*	*
*clefF4	*	*	*clefC3	*	*clefG2	*	*clefG2	*	*clefF4	*	*clefC4	*	*clefC3	*	*clefC1	*	*	*clefG2	*	*clefG2	*	*clefG2	*	*clefG2	*
*	*	*	*	*	*	*	*	*	*	*	*	*	*	*	*	*	*	*ITrd1c2	*	*ITrd1c2	*	*ITrd1c2	*	*ITrd1c2	*
*k[b-e-]	*	*	*k[b-e-]	*	*k[b-e-]	*	*k[b-e-]	*	*k[b-e-]	*	*k[b-e-]	*	*k[b-e-]	*	*k[b-e-]	*	*	*k[b-e-]	*	*k[b-e-]	*	*k[b-e-]	*	*k[b-e-]	*
*B-:	*	*	*B-:	*	*B-:	*	*B-:	*	*B-:	*	*B-:	*	*B-:	*	*B-:	*	*	*B-:	*	*B-:	*	*B-:	*	*B-:	*
*M3/8	*	*	*M3/8	*	*M3/8	*	*M3/8	*	*M3/8	*	*M3/8	*	*M3/8	*	*M3/8	*	*	*M3/8	*	*M3/8	*	*M3/8	*	*M3/8	*
=1	=1	=1	=1	=1	=1	=1	=1	=1	=1	=1	=1	=1	=1	=1	=1	=1	=1	=1	=1	=1	=1	=1	=1	=1	=1
*all\right	*	*	*	*	*	*	*	*	*	*	*	*	*	*	*	*	*below	*all\right	*	*	*2\right	*	*	*	*
!	!	!	!	!	!	!	!	!	!	!	!	!	!	!	!LO:TX:a:t=Allegro Vivace	!	!	!	!	!	!	!	!	!	!
!LO:TX:t=P:problem:mixed beam	!	!	!	!	!LO:TX:a:t=Allegro Vivace	!	!LO:TX:a:t=Allegro Vivace	!	!	!	!LO:TX:a:t=Allegro Vivace	!	!LO:TX:a:t=Allegro Vivace	!	!	!	!	!	!	!	!	!	!	!	!
!LO:TX:a:t=Allegro Vivace	!	!LO:DY:t=forto	!LO:TX:a:t=Allegro Vivace	!	!	!LO:DY:t=forto	!	!	!LO:TX:a:t=Allegro Vivace	!	!	!	!	!	!LO:TX:t=P:problem:kolejność znaków [e- b-]	!	!LO:DY:color=red	!LO:TX:a:t=Allegro Vivace	!	!LO:TX:a:t=Allegro Vivace	!LO:DY:t=forto	!LO:TX:a:i:t=Allegro Vivace	!	!LO:TX:a:t=Allegro Vivace	!
8B-\L	8 3	f	8f\L|	f	8dd\L|	f	(8bb-\L	f	8B-\	Ple-	8f\	Ple-	8dd\	Ple-	8bb-\	Ple-	f	8B-/L	.	8b-\L	f	8dd\L	f	(8bb-\L	f
8BB-/J	5 3	.	8f\J|	.	16dd\L|	.	16ff\L)	.	8BB-/	-ni	8f\	-ni	8dd\	-ni	8ff\	-ni	.	8B-/J	.	8b-\J	.	16dd\L	.	16ff\L)	.
.	.	.	.	.	16dd\|	.	16ff\|	.	.	.	.	.	.	.	.	.	.	.	.	.	.	16dd\	.	16ff'\	.
8r	.	.	8r	.	16dd\|	.	16ff\|	.	8r	.	8r	.	8r	.	8r	.	.	8r	.	8r	.	16dd\	.	16ff'\	.
.	.	.	.	.	16dd\JJ|	.	16ff\JJ|	.	.	.	.	.	.	.	.	.	.	.	.	.	.	16dd\JJ	.	16ff'\JJ	.
=2	=2	=2	=2	=2	=2	=2	=2	=2	=2	=2	=2	=2	=2	=2	=2	=2	=2	=2	=2	=2	=2	=2	=2	=2	=2
!LO:TX:t=P:problem:mixed beam	!	!	!	!	!	!	!	!	!	!	!	!	!	!	!	!	!	!	!	!	!	!	!	!	!
8BB-/L	5 3	.	8f\L|	.	8dd\L|	.	(8ff\L	.	8B-\	ple-	8f\	ple-	8dd\	ple-	8ff\	ple-	.	8B-/L	.	8b-\L	.	(8dd\L	.	(8ff\L	.
8B-\J	3	.	8f\J|	.	16b-\L|	.	16dd\L)	.	8BB-/	-ni	8f\	-ni	8b-\	-ni	8dd\	-ni	.	8B-/J	.	8b-\J	.	16b-\L)	.	16dd\L)	.
.	.	.	.	.	16b-\|	.	16dd\|	.	.	.	.	.	.	.	.	.	.	.	.	.	.	16b-\|	.	16dd'\	.
8r	.	.	8r	.	16b-\|	.	16dd\|	.	8r	.	8r	.	8r	.	8r	.	.	8r	.	8r	.	16b-\|	.	16dd'\	.
.	.	.	.	.	16b-\JJ|	.	16dd\JJ|	.	.	.	.	.	.	.	.	.	.	.	.	.	.	16b-\JJ|	.	16dd'\JJ	.
=3	=3	=3	=3	=3	=3	=3	=3	=3	=3	=3	=3	=3	=3	=3	=3	=3	=3	=3	=3	=3	=3	=3	=3	=3	=3
8BB-\L	3 1	.	8B-\L|	.	(16d/LL	.	(16b-\LL	.	8BB-/	ſunt	8d\	sunt	8d\	sunt	16b-\LL	ſunt	.	8B-/	.	8b-\	.	8d/L	.	(16b-\LL	.
.	.	.	.	.	16B-/)	.	16dd\)	.	.	.	.	.	.	.	16dd\JJ	.	.	.	.	.	.	.	.	16dd\)	.
8E-\	8 6	.	8e-\|	.	(16c/	.	(16cc\	.	8E-\	Coe-	8c\	Coe-	8e-\	Coe-	16cc\LL	Coe-	.	8r	.	8r	.	8e-/	.	16cc\|	.
.	.	.	.	.	16e-/)	.	16ee-\)	.	.	.	.	.	.	.	16ee-\JJ	.	.	.	.	.	.	.	.	16ee-\|	.
8F\J	5 3	.	8f\J|	.	(16A/	.	(16a\	.	16F\	-li	16A\	-li	16c\	-li	16a\	-li	.	8f/	.	8f/	.	16c/L	.	(16a\	.
.	.	.	.	.	16c/JJ)	.	16cc\JJ)	.	16F\	et	16c\	et	16e-\	et	16cc\	et	.	.	.	.	.	16e-/JJ	.	16cc\JJ)	.
!	!	!	!LO:LB:g=original	!	!	!	!	!	!	!	!	!	!	!	!	!	!	!	!	!	!	!	!	!	!
=4	=4	=4	=4	=4	=4	=4	=4	=4	=4	=4	=4	=4	=4	=4	=4	=4	=4	=4	=4	=4	=4	=4	=4	=4	=4
!	!	!	!	!	!	!	!LO:TX:t=P:problem:mixed beam	!	!	!	!	!	!	!	!	!	!	!	!	!	!	!	!	!LO:TX:t=P:problem:mixed beam	!
(16BB-/LL	8	.	8B-/L	.	(16B-/LL	.	(16b-\LL	.	16BB-/LL	ter-	16B-\LL	ter-	8d\	ter-	16b-\LL	ter-	.	16B-/LL	.	16B-/LL|	.	(16d/LL	.	(16b-\LL	.
16D/J)	8	.	.	.	16d/J)	.	16dd\J)	.	16D/JJ	.	16d\JJ	.	.	.	16dd\JJ	.	.	16d/J	.	16d/J|	.	16B-/J)	.	16dd\J)	.
!	!	!	!	!	!	!	!	!	!	!	!	!	!	!	!	!	!	!	!	!LO:N:vis=16	!	!	!	!	!
8FF/J	8	.	8F/J	.	8f/J	.	8f/J|	.	8F\	-ra	8F/	-ra	8f\	-ra	8f/	-ra	.	8F/J	.	8f/J|	.	8F/J	.	8f/J	.
8r	.	.	8r	.	8r	.	8r	.	8r	.	8r	.	8r	.	8r	.	.	8r	.	16r	.	8r	.	8r	.
.	.	.	.	.	.	.	.	.	.	.	.	.	.	.	.	.	.	.	.	16r	.	.	.	.	.
=5	=5	=5	=5	=5	=5	=5	=5	=5	=5	=5	=5	=5	=5	=5	=5	=5	=5	=5	=5	=5	=5	=5	=5	=5	=5
*	*	*	*^	*	*^	*	*^	*	*	*	*	*	*	*	*	*	*	*	*	*	*	*	*	*	*
*	*	*	*cue	*	*	*cue	*	*	*cue	*	*	*	*	*	*	*	*	*	*	*	*	*	*	*	*	*	*	*
!	!	!	!LO:TX:b:t=1	!	!	!	!	!	!	!	!	!	!	!	!	!	!	!	!	!	!LO:TX:a:i:t=dolce	!	!	!	!	!	!LO:TX:t=P:problem:niezidentyfikowany symbol przed "Solo." [prawdopodobnie HB - skrót od Hautbois]	!
!LO:TX:a:t=2	!	!	!LO:TX:a:t=Corno	!	!	!LO:TX:b:t=1	!	!	!LO:TX:b:t=1	!	!	!LO:TX:a:t=2	!	!LO:TX:a:t=2	!	!LO:TX:a:t=2	!	!LO:TX:a:t=2	!	!	!LO:TX:b:t=Solo	!	!LO:TX:b:t=Solo	!	!LO:TX:b:i:t=Solo	!	!LO:TX:b:t=HB Solo.	!
2.r	.	.	4f/	4.r	.	4ee-/	4.r	.	4aa/	4.r	.	2.r	.	2.r	.	2.r	.	2.r	.	.	4f/	.	(4cc\	.	4ee-\	.	4aa\	.
.	.	.	8b-/	.	.	(<16dd/LL	.	.	(<16bb-/LL	.	.	.	.	.	.	.	.	.	.	.	8b-\	.	8dd\)|	.	(16dd\LL	.	(16bb-\LL	.
.	.	.	.	.	.	16ee-/JJ)	.	.	16gg/JJ)	.	.	.	.	.	.	.	.	.	.	.	.	.	.	.	16ee-\JJ)	.	16gg\JJ)	.
!	!	!	!	!	!	!	!	!	!	!	!	!	!	!	!	!	!	!	!	!	!	!	!	!	!	!	!LO:LB:g=original	!
=6	=6	=6	=6	=6	=6	=6	=6	=6	=6	=6	=6	=6	=6	=6	=6	=6	=6	=6	=6	=6	=6	=6	=6	=6	=6	=6	=6	=6
!	!	!	!LO:TX:b:t=2	!	!	!LO:TX:b:t=2	!	!	!LO:TX:b:t=2	!	!	!	!	!	!	!	!	!	!	!	!	!	!	!	!	!	!	!
.	.	.	4f/	4.r	.	8dd/L	4.r	.	(<8ff/L	4.r	.	.	.	.	.	.	.	.	.	.	4f/	.	(4cc\	.	(8dd\L	.	(8ff\L	.
.	.	.	.	.	.	8cc/	.	.	8ee-/)	.	.	.	.	.	.	.	.	.	.	.	.	.	.	.	8cc\)	.	8ee-\)	.
.	.	.	8B-/	.	.	8b-/J	.	.	8dd/J|<	.	.	.	.	.	.	.	.	.	.	.	8d/	.	8b-\)|	.	8b-\J|	.	8dd\J|	.
*	*	*	*Xcue	*	*	*Xcue	*	*	*Xcue	*	*	*	*	*	*	*	*	*	*	*	*	*	*	*	*	*	*	*
*	*	*	*v	*v	*	*	*	*	*v	*v	*	*	*	*	*	*	*	*	*	*	*	*	*	*	*	*	*	*
*	*	*	*	*	*v	*v	*	*	*	*	*	*	*	*	*	*	*	*	*	*	*	*	*	*	*	*
!LO:LB:g=original	!	!	!	!	!	!	!	!	!	!	!	!	!LO:LB:g=original	!	!LO:LB:g=original	!	!	!	!	!LO:LB:g=original	!	!	!	!	!
=7	=7	=7	=7	=7	=7	=7	=7	=7	=7	=7	=7	=7	=7	=7	=7	=7	=7	=7	=7	=7	=7	=7	=7	=7	=7
!	!	!	!	!	!	!	!	!	!	!	!	!	!	!	!	!	!	!	!LO:DY:a	!LO:TX:t=P:problem:mixed beam	!	!	!	!	!LO:DY:rj:t=f&colon;
16BB-/LL|	8	.	16B-/LL|	.	16B-/LL|	.	16b-\LL|	.	16BB-/LL	glo-	16B-\LL	glo-	16b-\LL	glo-	16b-\LL	glo-	.	8B-/L|	f	8b-\L|	.	(16b-\LL	.	16b-\LL|	f
16AA/|	.	.	16A/|	.	16A/|	.	16a\|	.	16AA/JJ	.	16A\JJ	.	16a\JJ	.	16a\JJ	.	.	.	.	.	.	16a\	.	16a\|	.
16BB-/|	.	.	16B-/|	.	16B-/|	.	16b-\|	.	16BB-/	-ri-	16B-\	-ri-	16b-\	-ri-	16b-\	-ri-	.	8B-/|	.	8B-/|	.	16b-\)	.	16b-\|	.
16C/|	.	.	16c/|	.	16c/|	.	16cc\|	.	16C/	-a	16c\	-a	16cc\	-a	16cc\	-a	.	.	.	.	.	16cc'\	.	16cc\|	.
!	!	!	!	!	!	!	!	!	!	!	!LO:LB:g=original	!	!	!	!	!	!	!	!	!	!	!	!	!	!
16D/|	.	.	16d/|	.	16d/|	.	16dd\|	.	16D\LL	tu-	16d\LL	tu-	16d\LL	tu-	16dd\LL	tu-	.	8d/J|	.	8d/J|	.	16dd'\	.	16dd\|	.
16E-/JJ|	.	.	16e-/JJ|	.	16e-/JJ|	.	16ee-\JJ|	.	16E-\JJ	.	16e-\JJ	.	16e-\JJ	.	16ee-\JJ	.	.	.	.	.	.	16ee-'\JJ	.	16ee-\JJ|	.
!	!	!	!	!	!	!	!LO:LB:g=original	!	!	!	!	!	!	!	!	!	!	!	!	!	!	!LO:LB:g=original	!	!	!
=8	=8	=8	=8	=8	=8	=8	=8	=8	=8	=8	=8	=8	=8	=8	=8	=8	=8	=8	=8	=8	=8	=8	=8	=8	=8
!	!	!	!	!	!LO:TX:t=P:problem:mixed beam	!	!	!	!	!	!	!	!	!	!	!	!	!	!	!LO:TX:t=P:problem:mixed beam	!	!	!	!	!
4F\	8	.	4f\	.	8f/L	.	4ff\	.	4F\	-a	4f\	-a	4f\	-a	4ff\	-a	.	8f/	.	8f/L	.	4ff\	.	4ff\	.
.	.	.	.	.	8cc\|	.	.	.	.	.	.	.	.	.	.	.	.	8r	.	8cc\|	.	.	.	.	.
8r	.	.	8r	.	8cc\J|	.	8r	.	8r	.	8r	.	8r	.	8r	.	.	8r	.	8cc\J|	.	8r	.	8r	.
=9	=9	=9	=9	=9	=9	=9	=9	=9	=9	=9	=9	=9	=9	=9	=9	=9	=9	=9	=9	=9	=9	=9	=9	=9	=9
16F\LL	5 3	.	16f\KL	.	(16a\LL	.	8.cc\L	.	4.F\	ple-	4.f\	ple-	4.a\	ple-	4.cc\	ple-	.	4.f/	.	4.cc\	.	4.a\	f	4.ff\	.
16A\	.	.	8f\	.	16cc\)	.	.	.	.	.	.	.	.	.	.	.	.	.	.	.	.	.	.	.	.
16F\	.	.	.	.	(16a\	.	.	.	.	.	.	.	.	.	.	.	.	.	.	.	.	.	.	.	.
16A\	.	.	8f\	.	16cc\)	.	16cc\Jk	.	.	.	.	.	.	.	.	.	.	.	.	.	.	.	.	.	.
16F\	.	.	.	.	(16a\	.	(16aa\LL	.	.	.	.	.	.	.	.	.	.	.	.	.	.	.	.	.	.
16A\JJ	.	.	16f\Jk	.	16cc\JJ)	.	16ff\JJ)	.	.	.	.	.	.	.	.	.	.	.	.	.	.	.	.	.	.
!	!	!	!	!	!LO:LB:g=original	!	!	!	!LO:LB:g=original	!	!	!	!	!	!	!	!	!	!	!	!	!	!	!	!
=10	=10	=10	=10	=10	=10	=10	=10	=10	=10	=10	=10	=10	=10	=10	=10	=10	=10	=10	=10	=10	=10	=10	=10	=10	=10
!	!	!	!	!	!	!	!	!	!	!	!	!	!	!	!	!	!	!LO:TX:t=P:problem:takty nr 10-12 nieczytelne	!	!	!	!	!	!	!
16G\LL	3	.	16g\KL	.	(16b-\LL	.	16ff\KL	.	4En\	-ni	4g\	-ni	4b-\	-ni	4cc\	-ni	.	4.ryy	.	4.cc\	.	4.g\	.	4.eeX\	.
16B-\	.	.	8g\	.	16cc\)	.	8een\	.	.	.	.	.	.	.	.	.	.	.	.	.	.	.	.	.	.
16G\	.	.	.	.	(16b-\	.	.	.	.	.	.	.	.	.	.	.	.	.	.	.	.	.	.	.	.
16B-\	.	.	8g\	.	16cc\)	.	16dd\Jk|	.	.	.	.	.	.	.	.	.	.	.	.	.	.	.	.	.	.
16G\	.	.	.	.	(16b-\	.	16cc\LL|	.	8E\	sunt	8g\	sunt	8b-\	sunt	8cc\	sunt	.	.	.	.	.	.	.	.	.
16B-\JJ	.	.	16g\Jk	.	16cc\JJ)	.	16b-\JJ|	.	.	.	.	.	.	.	.	.	.	.	.	.	.	.	.	.	.
=11	=11	=11	=11	=11	=11	=11	=11	=11	=11	=11	=11	=11	=11	=11	=11	=11	=11	=11	=11	=11	=11	=11	=11	=11	=11
16F\LL	5 3	.	16f\KL	.	(16a\LL	.	(16a\LL	.	4.F\	Coe-	4.f\	Coe-	4.a\	Coe-	4.cc\	Coe-	.	4.ryy	.	4.cc\	.	4.a\	.	4.ff\	.
16A\	.	.	8f\	.	16cc\)	.	16b-\)	.	.	.	.	.	.	.	.	.	.	.	.	.	.	.	.	.	.
16F\	.	.	.	.	(16a\	.	16cc\|	.	.	.	.	.	.	.	.	.	.	.	.	.	.	.	.	.	.
16A\	.	.	8f\	.	16cc\)	.	16cc\JJ|	.	.	.	.	.	.	.	.	.	.	.	.	.	.	.	.	.	.
16F\	.	.	.	.	(16a\	.	(16aa\LL	.	.	.	.	.	.	.	.	.	.	.	.	.	.	.	.	.	.
16A\JJ	.	.	16f\Jk	.	16cc\JJ)	.	16ff\JJ)	.	.	.	.	.	.	.	.	.	.	.	.	.	.	.	.	.	.
=12	=12	=12	=12	=12	=12	=12	=12	=12	=12	=12	=12	=12	=12	=12	=12	=12	=12	=12	=12	=12	=12	=12	=12	=12	=12
16G\LL	3	.	16g\KL	.	(16b-\LL	.	(16ff\LL	.	4.En\	-li	4.g\	-li	4.b-\	-li	4.cc\	-li	.	4.ryy	.	4.cc\	.	4.g\	.	4.eeX\	.
16B-\	.	.	8g\	.	16cc\)	.	16een\)	.	.	.	.	.	.	.	.	.	.	.	.	.	.	.	.	.	.
16G\	.	.	.	.	(16b-\	.	16gg\|	.	.	.	.	.	.	.	.	.	.	.	.	.	.	.	.	.	.
16B-\	.	.	8g\	.	16cc\)	.	16ee\|	.	.	.	.	.	.	.	.	.	.	.	.	.	.	.	.	.	.
16G\	.	.	.	.	(16b-\	.	(16cc\	.	.	.	.	.	.	.	.	.	.	.	.	.	.	.	.	.	.
16B-\JJ	.	.	16g\Jk	.	16cc\JJ)	.	16b-\JJ)	.	.	.	.	.	.	.	.	.	.	.	.	.	.	.	.	.	.
!	!	!	!	!	!	!	!	!	!	!	!	!	!	!	!	!	!	!LO:LB:g=original	!	!	!	!	!	!	!
=13	=13	=13	=13	=13	=13	=13	=13	=13	=13	=13	=13	=13	=13	=13	=13	=13	=13	=13	=13	=13	=13	=13	=13	=13	=13
16AA/LL	3	.	(16A\LL	.	16cc\KL	.	(32a/LLL	.	4.F\	Coe-	4.f\	Coe-	4.a\	Coe-	(4cc\	Coe-	.	8.f/L	.	8.cc\L	.	4cc\	.	(16f/LL	.
.	.	.	.	.	.	.	32f/	.	.	.	.	.	.	.	.	.	.	.	.	.	.	.	.	.	.
16F/	.	.	16f\)	.	8cc\	.	32g/	.	.	.	.	.	.	.	.	.	.	.	.	.	.	.	.	32g/L	.
.	.	.	.	.	.	.	32a/JJJ)	.	.	.	.	.	.	.	.	.	.	.	.	.	.	.	.	32a/JJJ	.
16AA/	.	.	(16A\	.	.	.	(32b-\LLL	.	.	.	.	.	.	.	.	.	.	.	.	.	.	.	.	32b-\LLL	.
.	.	.	.	.	.	.	32cc\	.	.	.	.	.	.	.	.	.	.	.	.	.	.	.	.	32cc\	.
16F/	.	.	16f\)	.	8cc\	.	32dd\	.	.	.	.	.	.	.	.	.	.	16f/K	.	16cc\K	.	.	.	32dd\	.
!	!	!	!	!	!	!	!LO:SIC:v:s=32een\JJJ)	!	!	!	!	!	!	!	!	!	!	!	!	!	!	!	!	!	!
.	.	.	.	.	.	.	32ee-\JJJ)	.	.	.	.	.	.	.	.	.	.	.	.	.	.	.	.	32eeX\JJJ)	.
16AA/	.	.	(16A\	.	.	.	16ff\LL|	.	.	.	.	.	.	.	8ff\)	.	.	8f/J	.	8cc\J	.	8cc\	.	16ff\LL|	.
16F/JJ	.	.	16f\JJ)	.	16cc\Jk	.	16ff\JJ|	.	.	.	.	.	.	.	.	.	.	.	.	.	.	.	.	16ff\JJ|	.
=14	=14	=14	=14	=14	=14	=14	=14	=14	=14	=14	=14	=14	=14	=14	=14	=14	=14	=14	=14	=14	=14	=14	=14	=14	=14
16BB-\LL	3	.	(16B-\LL	.	16dd\KL	.	16dd\LL	.	4B-\	-li	4g\	-li	4b-\	-li	4dd\	-li	.	8.b-\L	.	8.dd\L	.	4dd\	.	(16dd\LL	.
16G\	.	.	16g\)	.	8dd\	.	(32een\L	.	.	.	.	.	.	.	.	.	.	.	.	.	.	.	.	32eeX\L	.
.	.	.	.	.	.	.	32ff\JJJ	.	.	.	.	.	.	.	.	.	.	.	.	.	.	.	.	32ff\JJJ	.
16BB-\	.	.	(16B-\	.	.	.	32gg\LLL	.	.	.	.	.	.	.	.	.	.	.	.	.	.	.	.	32gg\LLL	.
.	.	.	.	.	.	.	32aa\	.	.	.	.	.	.	.	.	.	.	.	.	.	.	.	.	32aa\	.
16G\	.	.	16g\)	.	16dd\Jk	.	32bb-\	.	.	.	.	.	.	.	.	.	.	16b-\K	.	16dd\K	.	.	.	32bb-\	.
.	.	.	.	.	.	.	32ccc\JJJ)	.	.	.	.	.	.	.	.	.	.	.	.	.	.	.	.	32ccc\JJJ)	.
16BB-\	.	.	(16B-\	.	16bb-\LL|	.	16ddd\LL|	.	8G\	et	8d\	et	8b-\	et	8gg\	et	.	8b-\J	.	8dd\J	.	16bb-\LL|	.	16ddd\LL|	.
16G\JJ	.	.	16g\JJ)	.	16bb-\JJ|	.	16ddd\JJ|	.	.	.	.	.	.	.	.	.	.	.	.	.	.	16bb-\JJ|	.	16ddd\JJ|	.
=15	=15	=15	=15	=15	=15	=15	=15	=15	=15	=15	=15	=15	=15	=15	=15	=15	=15	=15	=15	=15	=15	=15	=15	=15	=15
!	!	!	!	!	!LO:TX:t=P:problem:mixed beam	!	!	!	!	!	!	!	!	!	!	!	!	!	!	!	!	!	!	!	!
16C/LL	6 4	.	8c\L	.	8aa\L	.	8ccc\L	.	4c\	ter-	4c\	ter-	8cc\L	ter-	8aa\L	ter-	.	8r	.	8r	.	8aa\L|	.	8ccc\L	.
16C/	.	.	.	.	.	.	.	.	.	.	.	.	.	.	.	.	.	.	.	.	.	.	.	.	.
16C/	.	.	8cc\	.	8a/	.	8ff\	.	.	.	.	.	8a\J	.	8ff\J	.	.	8cc\L	.	8cc\L	.	8a\|	.	8ff\|	.
16C/	.	.	.	.	.	.	.	.	.	.	.	.	.	.	.	.	.	.	.	.	.	.	.	.	.
16CC/	5 n	.	8cc\J	.	8g/J	.	8een\J	.	8C/	-ra	8c\	-ra	8g\	-ra	8een\	-ra	.	8cc\J	.	8cc\J	.	8g\J|	.	8eeX\J|	.
16CC/JJ	.	.	.	.	.	.	.	.	.	.	.	.	.	.	.	.	.	.	.	.	.	.	.	.	.
!	!	!	!	!	!	!	!LO:LB:g=original	!	!	!	!	!	!	!	!	!	!	!	!	!	!	!	!	!	!
=16	=16	=16	=16	=16	=16	=16	=16	=16	=16	=16	=16	=16	=16	=16	=16	=16	=16	=16	=16	=16	=16	=16	=16	=16	=16
16AA/LL	3	.	16A\LL	.	16cc\KL	.	(16f/LL	.	4.F\	glo-	4.f\	glo-	4.a\	glo-	(4cc\	glo-	.	8f/L	.	8cc\L	.	4cc\	.	(16f/LL	.
16F/	.	.	16f\JJ	.	8cc\	.	32g/L	.	.	.	.	.	.	.	.	.	.	.	.	.	.	.	.	32g/L	.
.	.	.	.	.	.	.	32a/JJJ	.	.	.	.	.	.	.	.	.	.	.	.	.	.	.	.	32a/JJJ	.
!	!	!	!LO:LB:g=original	!	!	!	!	!	!	!	!	!	!	!	!	!	!	!	!	!	!	!	!	!	!
16AA/	.	.	(16A\LL	.	.	.	32b-\LLL	.	.	.	.	.	.	.	.	.	.	16f/L	.	16cc\L	.	.	.	32b-\LLL	.
.	.	.	.	.	.	.	32cc\	.	.	.	.	.	.	.	.	.	.	.	.	.	.	.	.	32cc\	.
16F/	.	.	16f\)	.	8cc\	.	32dd\	.	.	.	.	.	.	.	.	.	.	16f/J	.	16cc\J	.	.	.	32dd\	.
.	.	.	.	.	.	.	32een\JJJ)	.	.	.	.	.	.	.	.	.	.	.	.	.	.	.	.	32eeX\JJJ)	.
!	!	!	!	!	!	!	!	!	!	!	!	!	!	!	!	!	!	!	!	!	!	!	!	!LO:LB:g=original	!
16AA/	.	.	(16A\	.	.	.	16ff\LL|	.	.	.	.	.	.	.	8ff\)	.	.	8f/J	.	8cc\J	.	8cc\	.	16ff\LL|	.
16F/JJ	.	.	16f\JJ)	.	16cc\Jk	.	16ff\JJ|	.	.	.	.	.	.	.	.	.	.	.	.	.	.	.	.	16ff\JJ|	.
=17	=17	=17	=17	=17	=17	=17	=17	=17	=17	=17	=17	=17	=17	=17	=17	=17	=17	=17	=17	=17	=17	=17	=17	=17	=17
16BB-\LL	3	.	(16B-\LL	.	16dd\KL	.	(16dd\LL	.	4B-\	-ri-	4g\	-ri-	4b-\	-ri-	4dd\	-ri-	.	8b-\L	.	8dd\L	.	4dd\	.	(16dd\LL	.
16G\	.	.	16g\)	.	8dd\	.	32een\L	.	.	.	.	.	.	.	.	.	.	.	.	.	.	.	.	32eeX\L	.
.	.	.	.	.	.	.	32ff\JJJ	.	.	.	.	.	.	.	.	.	.	.	.	.	.	.	.	32ff\JJJ	.
16BB-\	.	.	(16B-\	.	.	.	32gg\LLL	.	.	.	.	.	.	.	.	.	.	16b-\L	.	16dd\L	.	.	.	32gg\LLL	.
.	.	.	.	.	.	.	32aa\	.	.	.	.	.	.	.	.	.	.	.	.	.	.	.	.	32aa\	.
16G\	.	.	16g\)	.	16dd\Jk	.	32bb-\	.	.	.	.	.	.	.	.	.	.	16b-\J	.	16dd\J	.	.	.	32bb-\	.
.	.	.	.	.	.	.	32ccc\JJJ)	.	.	.	.	.	.	.	.	.	.	.	.	.	.	.	.	32ccc\JJJ)	.
16BB-\	.	.	(16B-\	.	16bb-\LL|	.	16ddd\LL|	.	8G\	-a	8d\	-a	8b-\	-a	8gg\	-a	.	8b-\J	.	8dd\J	.	8bb-\	.	16ddd\LL|	.
16G\JJ	.	.	16g\JJ)	.	16bb-\JJ|	.	16ddd\JJ|	.	.	.	.	.	.	.	.	.	.	.	.	.	.	.	.	16ddd\JJ|	.
!	!	!	!	!	!	!	!	!	!	!	!	!	!LO:LB:g=original	!	!	!	!	!	!	!	!	!	!	!	!
=18	=18	=18	=18	=18	=18	=18	=18	=18	=18	=18	=18	=18	=18	=18	=18	=18	=18	=18	=18	=18	=18	=18	=18	=18	=18
16C/LL	4	.	8c\L	.	(16aa\LL	.	(16ccc\LL	.	4c\	tu-	4.c\	tu-	8cc\L	tu-	8aa\L	tu-	.	4cc\	.	4cc\	.	(16aa\LL	.	(16ccc\LL	.
16C/	.	.	.	.	16ff\JJ)	.	16aa\)	.	.	.	.	.	.	.	.	.	.	.	.	.	.	16ff\JJ)	.	16aa\)	.
16C/	.	.	8cc\	.	16a\LL|	.	16ff\|	.	.	.	.	.	8a\	.	8ff\	.	.	.	.	.	.	16a\LL|	.	16ff\|	.
16C/	.	.	.	.	16cc\|	.	16aa\|	.	.	.	.	.	.	.	.	.	.	.	.	.	.	16cc\|	.	16aa\|	.
16CC/	n	.	8cc\J	.	16b-\|	.	(16gg\	.	8C/	.	.	.	8g\J	.	8een\J	.	.	8cc\	.	8cc\	.	(16b-\	.	(16gg\	.
!	!	!	!	!	!	!	!LO:SIC:v:s=16een\JJ)	!	!	!	!	!	!	!	!	!	!	!	!	!	!	!	!	!LO:SIC:v:s=16een\JJ)	!
16CC/JJ	.	.	.	.	16g\JJ|	.	16ee-\JJ)	.	.	.	.	.	.	.	.	.	.	.	.	.	.	16g\JJ)	.	16ee-\JJ)	.
!LO:LB:g=original	!	!	!	!	!	!	!	!	!	!	!	!	!	!	!LO:LB:g=original	!	!	!	!	!	!	!	!	!	!
=19	=19	=19	=19	=19	=19	=19	=19	=19	=19	=19	=19	=19	=19	=19	=19	=19	=19	=19	=19	=19	=19	=19	=19	=19	=19
!LO:TX:t=P:problem:mixed beam	!	!	!	!	!	!	!	!	!	!	!	!	!	!	!	!	!	!	!	!	!	!	!	!	!
8FF/L	3	.	8cc\	.	8a/	.	8ff\|	.	4F\	-a.	4c\	-a	4a\	-a	4ff\	-a	.	8f/	.	8cc\	.	8a\	.	8ff\	.
8F\J	.	.	8r	.	8r	.	8r	p	.	.	.	.	.	.	.	.	.	8r	.	8r	.	8r	.	8r	.
!LO:TX:b:t=Senza Org&colon;	!	!	!	!	!	!LO:DY:a:t=piano	!	!	!	!	!	!	!	!	!	!	!	!	!	!	!	!	!	!	!
8r	.	.	8r	.	8c/|	p	8a/|	.	8r	.	8r	.	8r	.	8r	.	.	8r	.	8r	.	8r	.	8r	.
=20	=20	=20	=20	=20	=20	=20	=20	=20	=20	=20	=20	=20	=20	=20	=20	=20	=20	=20	=20	=20	=20	=20	=20	=20	=20
!LO:TX:a:t=Pedal	!	!	!	!	!	!	!	!	!LO:TX:a:t=9	!	!LO:TX:a:t=9	!	!LO:TX:a:t=9	!	!LO:TX:a:t=9	!	!	!	!	!	!	!LO:TX:a:t=i	!	!LO:TX:a:t=i	!
8r	.	.	8r	.	8A/|	.	8f/|	.	1.r	.	1.r	.	1.r	.	1.r	.	.	8r	.	8r	.	4.r	.	4.r	.
!	!	!	!LO:TX:b:i:t=dolce	!	!	!	!	!	!	!	!	!	!	!	!	!	!	!	!	!	!	!	!	!	!
8FF/	.	.	8F/	.	8r	.	8r	.	.	.	.	.	.	.	.	.	.	8F/	.	8f/|	.	.	.	.	.
8r	.	.	8r	.	8e-X/|	.	8cc\|	.	.	.	.	.	.	.	.	.	.	8r	.	8r	.	.	.	.	.
!	!	!	!	!	!LO:LB:g=original	!	!	!	!	!	!	!	!	!	!	!	!	!	!	!	!	!	!	!	!
=21	=21	=21	=21	=21	=21	=21	=21	=21	=21	=21	=21	=21	=21	=21	=21	=21	=21	=21	=21	=21	=21	=21	=21	=21	=21
*	*	*	*	*	*^	*	*^	*	*	*	*	*	*	*	*	*	*	*	*	*	*	*	*	*	*
8r	.	.	8r	.	8c/|	8ryy	.	8a/|	8ryy	.	.	.	.	.	.	.	.	.	.	8r	.	8r	.	8r	.	8r	.
!	!	!LO:DY:a	!	!	!	!	!	!LO:TX:b:t=Clarintto	!	!	!	!	!	!	!	!	!	!	!	!	!	!	!	!	!	!	!
8FF/|	.	p	8F/	.	8r	8ryy	.	8r	8ryy	.	.	.	.	.	.	.	.	.	.	8F/	.	8f/|	.	8r	.	8r	.
*	*	*	*	*	*cue	*	*	*cue	*	*	*	*	*	*	*	*	*	*	*	*	*	*	*	*	*	*	*
!	!	!	!	!	!	!	!	!	!	!	!	!	!	!	!	!	!	!	!	!	!	!	!	!LO:TX:t=P:problem:niezidentyfikowany symbol przed "Solo." [prawdopodobnie HB - skrót od Hautbois]	!	!LO:TX:t=P:problem:niezidentyfikowany symbol przed "Solo." [prawdopodobnie HB - skrót od Hautbois]	!
!	!	!	!	!	!LO:TX:a:t=Clarinett	!	!	!LO:TX:i:a:t=Soli	!	!	!	!	!	!	!	!	!	!	!	!	!	!	!	!LO:TX:b:t=HB Solo	!	!LO:TX:b:t=HB Solo	!
8r	.	.	8r	.	8cc/	8r	.	8ee-X/|	8r	.	.	.	.	.	.	.	.	.	.	8r	.	8r	.	8cc\|	.	8ee-X\|	.
=22	=22	=22	=22	=22	=22	=22	=22	=22	=22	=22	=22	=22	=22	=22	=22	=22	=22	=22	=22	=22	=22	=22	=22	=22	=22	=22	=22
8r	.	.	8r	.	8a/	8r	.	8cc/	8r	.	.	.	.	.	.	.	.	.	.	8r	.	8r	.	8a\|	.	8cc\|	.
8FF/|	.	.	8F/	.	8r	8ryy	.	8r	8ryy	.	.	.	.	.	.	.	.	.	.	8F/	.	8f/|	.	8r	.	8r	.
*	*	*	*	*	*Xcue	*	*	*Xcue	*	*	*	*	*	*	*	*	*	*	*	*	*	*	*	*	*	*	*
!	!	!	!LO:TX:b:i:t=dolce	!	!	!	!	!LO:TX:b:i:t=dolce	!	!	!	!	!	!	!	!	!	!	!	!	!	!	!	!	!	!	!
8r	.	.	(16g\LL	.	(16ee-X\LL	8ryy	p	(16gg\LL	8ryy	.	.	.	.	.	.	.	.	.	.	8r	.	8r	.	8r	.	8r	.
.	.	.	16f\JJ)	.	16dd\JJ)	.	.	16ff\JJ)	.	.	.	.	.	.	.	.	.	.	.	.	.	.	.	.	.	.	.
*	*	*	*	*	*v	*v	*	*	*	*	*	*	*	*	*	*	*	*	*	*	*	*	*	*	*	*	*
*	*	*	*	*	*	*	*v	*v	*	*	*	*	*	*	*	*	*	*	*	*	*	*	*	*	*	*
!	!	!	!	!	!	!	!	!	!	!	!	!	!	!	!	!	!	!	!	!LO:LB:g=original	!	!	!	!	!
=23	=23	=23	=23	=23	=23	=23	=23	=23	=23	=23	=23	=23	=23	=23	=23	=23	=23	=23	=23	=23	=23	=23	=23	=23	=23
!	!	!	!	!	!	!	!	!	!	!	!	!	!	!	!	!	!	!	!	!LO:TX:b:i:t=dolce	!	!	!	!	!
!	!	!	!	!	!	!	!	!	!	!	!	!	!	!	!	!	!	!	!	!LO:TX:t=P:problem:niezidentyfikowany symbol nad pięciolinią [prawdopodobnie HB - skrót od Hautbois]	!	!	!	!	!
!	!	!	!	!	!LO:TX:b:i:t=dolce	!	!	!	!	!	!	!	!	!	!	!	!	!LO:TX:a:t=1	!	!LO:TX:a:t=HB	!	!LO:TX:a:t=i	!	!LO:TX:a:t=i	!
(4A\	.	.	8e-X\L|	.	8cc\L|	.	8ee-X\L|	.	.	.	.	.	.	.	.	.	.	4.r	.	4f/	.	4.r	.	4.r	.
.	.	.	(8e-\	.	(8cc\	.	(8ee-\	.	.	.	.	.	.	.	.	.	.	.	.	.	.	.	.	.	.
8B-\)	.	.	8d\J)	.	8b-\J)	.	8dd\J)	.	.	.	.	.	.	.	.	.	.	.	.	8f/	.	.	.	.	.
!	!	!	!	!	!	!	!	!	!	!	!	!	!	!	!	!	!	!	!	!	!	!LO:2B:g=original	!	!	!
=24	=24	=24	=24	=24	=24	=24	=24	=24	=24	=24	=24	=24	=24	=24	=24	=24	=24	=24	=24	=24	=24	=24	=24	=24	=24
*	*	*	*^	*	*^	*	*^	*	*	*	*	*	*	*	*	*	*	*	*	*	*	*	*	*	*
8F\	.	.	8c\	8ryy	.	8a/	8ryy	.	8cc\	8ryy	.	1.r	.	1.r	.	1.r	.	1.r	.	.	8r	.	8f/	.	8r	.	8r	.
8r	.	.	8r	8ryy	.	8r	8ryy	.	8r	8ryy	.	.	.	.	.	.	.	.	.	.	8r	.	8r	.	8r	.	8r	.
*	*	*	*cue	*	*	*cue	*	*	*cue	*	*	*	*	*	*	*	*	*	*	*	*	*	*	*	*	*	*	*
!	!	!	!	!	!	!	!	!	!	!	!	!	!	!	!	!	!	!	!	!	!LO:TX:a:t=Solo	!	!LO:TX:a:t=Solo	!	!	!	!LO:TX:t=P:problem:cross-measure beam 	!
8r	.	.	8f/	8r	.	8cc/	8r	.	8ee-/	8r	.	.	.	.	.	.	.	.	.	.	8F/L	.	8f/L	.	8cc\L	.	8ee-\|L	.
!	!	!	!	!	!	!	!	!	!LO:LB:g=original	!LO:LB:g=original	!	!	!	!	!	!	!	!	!	!	!	!	!	!	!	!	!	!
=25	=25	=25	=25	=25	=25	=25	=25	=25	=25	=25	=25	=25	=25	=25	=25	=25	=25	=25	=25	=25	=25	=25	=25	=25	=25	=25	=25	=25
!LO:TX:a:t=i	!	!	!	!	!	!	!	!	!	!	!	!	!	!	!	!	!	!	!	!	!	!	!	!	!	!	!	!
4.r	.	.	8f/	8r	.	8a/	8r	.	8cc/|	8r	.	.	.	.	.	.	.	.	.	.	8F/J	.	8f/J	.	8a\J	.	8cc\|J	.
.	.	.	8r	8ryy	.	8r	8ryy	.	8r	8ryy	.	.	.	.	.	.	.	.	.	.	8r	.	8r	.	8r	.	8r	.
*	*	*	*Xcue	*	*	*Xcue	*	*	*Xcue	*	*	*	*	*	*	*	*	*	*	*	*	*	*	*	*	*	*	*
!	!	!	!	!	!	!	!	!	!LO:TX:b:i:t=dolce	!	!	!	!	!	!	!	!	!	!	!	!	!	!	!	!	!	!	!
.	.	.	(16g\LL	8ryy	.	(16ee-\LL	8ryy	p	(16gg\LL	8ryy	.	.	.	.	.	.	.	.	.	.	8r	.	8r	.	8r	.	8r	.
.	.	.	16f\JJ)	.	.	16dd\JJ)	.	.	16ff\JJ)	.	.	.	.	.	.	.	.	.	.	.	.	.	.	.	.	.	.	.
*	*	*	*v	*v	*	*	*	*	*v	*v	*	*	*	*	*	*	*	*	*	*	*	*	*	*	*	*	*	*
*	*	*	*	*	*v	*v	*	*	*	*	*	*	*	*	*	*	*	*	*	*	*	*	*	*	*	*
=26	=26	=26	=26	=26	=26	=26	=26	=26	=26	=26	=26	=26	=26	=26	=26	=26	=26	=26	=26	=26	=26	=26	=26	=26	=26
!	!	!	!	!	!	!	!	!	!	!	!	!	!	!	!	!	!	!LO:TX:a:t=1	!	!	!	!LO:TX:a:t=i	!	!LO:TX:a:t=i	!
(4A\	.	.	8e-\L|	.	8cc\L|	.	8ee-\L|	.	.	.	.	.	.	.	.	.	.	4.r	.	4f/	.	4.r	.	4.r	.
.	.	.	(8e-\	.	(8cc\	.	(8ee-\	.	.	.	.	.	.	.	.	.	.	.	.	.	.	.	.	.	.
8B-\)	.	.	8d\J)	.	8b-\J)	.	8dd\J)	.	.	.	.	.	.	.	.	.	.	.	.	8f/	.	.	.	.	.
!	!	!	!	!	!	!	!	!	!	!	!	!	!	!	!	!	!	!LO:LB:g=original	!	!	!	!	!	!	!
=27	=27	=27	=27	=27	=27	=27	=27	=27	=27	=27	=27	=27	=27	=27	=27	=27	=27	=27	=27	=27	=27	=27	=27	=27	=27
*	*	*	*^	*	*^	*	*^	*	*	*	*	*	*	*	*	*	*	*	*	*	*	*	*	*	*
4F\	.	.	8c\	8ryy	.	8a/	8ryy	.	8cc\	8ryy	.	.	.	.	.	.	.	.	.	.	8r	.	8f/	.	8r	.	8r	.
.	.	.	8r	8ryy	.	8r	8ryy	.	8r	8ryy	.	.	.	.	.	.	.	.	.	.	8r	.	8r	.	8r	.	8r	.
*	*	*	*cue	*	*	*cue	*	*	*cue	*	*	*	*	*	*	*	*	*	*	*	*	*	*	*	*	*	*	*
!	!	!	!	!	!	!	!	!	!	!	!	!	!	!	!	!	!	!	!	!	!	!	!LO:TX:a:t=Solo	!	!	!	!	!
8r	.	.	8f/	8r	.	8cc/	8r	.	8ee-/|	8r	.	.	.	.	.	.	.	.	.	.	8F/L	.	8f/L	.	8cc\|L	.	8ee-\	.
=28	=28	=28	=28	=28	=28	=28	=28	=28	=28	=28	=28	=28	=28	=28	=28	=28	=28	=28	=28	=28	=28	=28	=28	=28	=28	=28	=28	=28
!LO:TX:a:t=1	!	!	!LO:TX:b:t=1	!	!	!LO:TX:b:t=1	!	!	!	!	!	!	!	!	!	!	!	!	!	!	!	!	!	!	!	!	!	!
4.r	.	.	8f/	4.r	.	8a/	4.r	.	8cc/|	8r	.	4.r	.	4.r	.	4.r	.	4.r	.	.	8F/J	.	8f/J	.	8a\|J	.	8cc\	.
!	!	!	!	!	!	!	!	!	!	!	!LO:DY:t=forto	!	!	!	!	!	!	!	!	!	!	!	!	!	!	!	!	!
.	.	.	8r	.	.	8r	.	.	8r	8ryy	f	.	.	.	.	.	.	.	.	.	8r	.	8r	.	8r	.	8r	.
*	*	*	*Xcue	*	*	*Xcue	*	*	*Xcue	*	*	*	*	*	*	*	*	*	*	*	*	*	*	*	*	*	*	*
.	.	.	8r	.	.	8r	.	.	(32g/LLL	8ryy	.	.	.	.	.	.	.	.	.	.	8r	.	8r	.	8r	.	8r	.
.	.	.	.	.	.	.	.	.	32f/	.	.	.	.	.	.	.	.	.	.	.	.	.	.	.	.	.	.	.
.	.	.	.	.	.	.	.	.	32en/	.	.	.	.	.	.	.	.	.	.	.	.	.	.	.	.	.	.	.
.	.	.	.	.	.	.	.	.	32f/JJJ)	.	.	.	.	.	.	.	.	.	.	.	.	.	.	.	.	.	.	.
*	*	*	*v	*v	*	*	*	*	*v	*v	*	*	*	*	*	*	*	*	*	*	*	*	*	*	*	*	*	*
*	*	*	*	*	*v	*v	*	*	*	*	*	*	*	*	*	*	*	*	*	*	*	*	*	*	*	*
!LO:LB:g=original	!	!	!LO:LB:g=original	!	!	!	!	!	!	!	!LO:LB:g=original	!	!	!	!	!	!	!	!	!	!	!	!	!	!
=29	=29	=29	=29	=29	=29	=29	=29	=29	=29	=29	=29	=29	=29	=29	=29	=29	=29	=29	=29	=29	=29	=29	=29	=29	=29
!LO:TX:b:t=Con Org	!	!	!	!	!	!LO:DY:a:t=forto	!	!	!	!	!	!	!	!	!	!	!	!	!	!	!	!	!	!	!LO:DY:rj:t=forto
8r	.	.	8r	.	8r	f	8b-\	.	8r	.	8r	.	8r	.	8r	.	.	8r	f	8r	.	8r	f	8b-\L|	f
!	!	!	!	!	!	!	!	!	!	!	!	!	!	!	!	!	!	!	!	!	!LO:DY:t=forto	!	!	!	!
8BB-/L	8 3	.	8f\L	.	8d/L|	.	8b-\L|	.	4B-\	ple-	4d\	ple-	4f\	ple-	4b-\	Ple-	.	8d/L	.	8b-\L	f	8d/L	.	8b-\|	.
8BB-/J	.	.	8f\J	.	8d/J|	.	8b-\J|	.	.	.	.	.	.	.	.	.	.	8d/J	.	8b-\J	.	8d/J	.	8b-\J|	.
!	!	!	!	!	!	!	!	!	!LO:LB:g=original	!	!	!	!	!	!	!	!	!	!	!	!	!	!	!LO:LB:g=original	!
=30	=30	=30	=30	=30	=30	=30	=30	=30	=30	=30	=30	=30	=30	=30	=30	=30	=30	=30	=30	=30	=30	=30	=30	=30	=30
!LO:TX:b:t=Tutti	!	!	!	!	!	!	!	!	!	!	!	!	!	!	!	!	!	!	!	!	!	!	!	!	!
8C/	3	.	8f\	.	8e-/	.	8a\L	.	8c\	-ni	8e-\	-ni	8f\	-ni	8a\	-ni	.	8f/	.	8cc\	.	8e-/	.	8a\L	.
!	!	!	!	!	!	!	!LO:TUP:a	!	!	!	!	!	!	!	!	!	!	!	!	!	!	!	!	!LO:TUP:a	!
!	!	!	!	!	!	!	!LO:TX:t=P:problem:klamra łukowa	!	!	!	!	!	!	!	!	!	!	!	!	!	!	!	!	!LO:TX:t=P:problem:klamra łukowa	!
8r	.	.	8r	.	8r	.	24cc\L	.	8r	.	8r	.	8r	.	8r	.	.	8r	.	8r	.	8r	.	24cc\L	.
.	.	.	.	.	.	.	24dd\	.	.	.	.	.	.	.	.	.	.	.	.	.	.	.	.	24dd\	.
.	.	.	.	.	.	.	24cc\JJ	.	.	.	.	.	.	.	.	.	.	.	.	.	.	.	.	24cc\JJ	.
!	!	!	!	!	!	!	!LO:TUP:a	!	!	!	!	!	!	!	!	!	!	!	!	!	!	!	!	!	!
!	!	!	!	!	!	!	!LO:TX:t=P:problem:klamra łukowa	!	!	!	!	!	!	!	!	!	!	!	!	!	!	!	!	!LO:TUP:a	!
8r	.	.	8r	.	8r	.	24b-\LL	.	8r	.	8r	.	8r	.	8r	.	.	8r	.	8r	.	8r	.	24b-\LL	.
.	.	.	.	.	.	.	24a\	.	.	.	.	.	.	.	.	.	.	.	.	.	.	.	.	24a\	.
.	.	.	.	.	.	.	24g\JJ	.	.	.	.	.	.	.	.	.	.	.	.	.	.	.	.	24g\JJ	.
=31	=31	=31	=31	=31	=31	=31	=31	=31	=31	=31	=31	=31	=31	=31	=31	=31	=31	=31	=31	=31	=31	=31	=31	=31	=31
!	!	!	!	!	!	!	!	!	!	!	!	!	!	!	!	!	!	!	!	!	!	!	!	!LO:TX:t=P:problem:mixed beam	!
8r	.	.	8r	.	8r	.	8f/|	.	8r	.	8r	.	8r	.	8r	.	.	8r	.	8r	.	8r	.	8f/L	.
8AA/L	5 3	.	8f\L	.	8cc\L|	.	8ee-X\L|	.	4A\	ple-	4c\	ple-	4f\	ple-	4ee-X\	ple-	.	8f/L	.	8cc\L	.	8cc\L|	.	8ee-\|	.
8AA/J	.	.	8f\J	.	8cc\J|	.	8ee-\J|	.	.	.	.	.	.	.	.	.	.	8f/J	.	8cc\J	.	8cc\J|	.	8ee-\J|	.
=32	=32	=32	=32	=32	=32	=32	=32	=32	=32	=32	=32	=32	=32	=32	=32	=32	=32	=32	=32	=32	=32	=32	=32	=32	=32
8BB-/	3	.	8f\	.	8b-\|	.	8dd\L	.	8B-\	-ni	8B-\	-ni	8f\	-ni	8dd\	-ni	.	8b-\	.	4dd\	.	8b-\|	.	8dd\L	.
!	!	!	!	!	!	!	!LO:TUP:a	!	!	!	!	!	!	!	!	!	!	!	!	!	!	!	!	!LO:TUP:a	!
!	!	!	!	!	!	!	!LO:TX:t=P:problem:klamra łukowa	!	!	!	!	!	!	!	!	!	!	!	!	!	!	!	!	!LO:TX:t=P:problem:klamra łukowa	!
8r	.	.	8r	.	8r	.	24ff\L	.	8r	.	8r	.	8r	.	8r	.	.	8r	.	.	.	8r	.	24ff\L	.
.	.	.	.	.	.	.	24gg\	.	.	.	.	.	.	.	.	.	.	.	.	.	.	.	.	24gg\	.
.	.	.	.	.	.	.	24ff\JJ	.	.	.	.	.	.	.	.	.	.	.	.	.	.	.	.	24ff\JJ	.
.	.	.	.	.	.	.	16qqee-/	.	.	.	.	.	.	.	.	.	.	.	.	.	.	.	.	.	.
*	*	*	*	*	*	*	*	*	*	*	*	*	*	*	*	*	*	*	*	*	*	*	*	*Xtuplet	*
!	!	!	!	!	!	!	!LO:TUP:a	!	!	!	!	!	!	!	!	!	!	!	!	!	!	!	!	!	!
!	!	!	!	!	!	!	!LO:TX:t=P:problem:klamra łukowa	!	!	!	!	!	!	!	!	!	!	!	!	!	!	!	!	!	!
8r	.	.	8r	.	8r	.	24dd\LL	.	8r	.	8r	.	8r	.	8r	.	.	8r	.	8r	.	8r	.	24dd\LL	.
.	.	.	.	.	.	.	24cc\	.	.	.	.	.	.	.	.	.	.	.	.	.	.	.	.	24cc\	.
.	.	.	.	.	.	.	24b-\JJ	.	.	.	.	.	.	.	.	.	.	.	.	.	.	.	.	24b-\JJ	.
=33	=33	=33	=33	=33	=33	=33	=33	=33	=33	=33	=33	=33	=33	=33	=33	=33	=33	=33	=33	=33	=33	=33	=33	=33	=33
8r	.	.	8r	.	8r	.	8gg\	.	8r	.	8r	.	8r	.	8r	.	.	8r	.	8r	.	8r	.	8gg\L|	.
8E-\L	3	.	8b-\L	.	8e-/L|	.	8gg\L|	.	8r	.	8r	.	8r	.	8r	.	.	8B-/L	.	8b-\L	.	8ee-\L|	.	8gg\|	.
8E-\J	.	.	8b-\J	.	8e-/J|	.	8gg\J|	.	8E-\	ſunt	8e-\	ſunt	8b-\	sunt	8gg\	ſunt	.	8B-/J	.	8b-\J	.	8ee-\J|	.	8gg\J|	.
!	!	!	!	!	!LO:LB:g=original	!	!	!	!	!	!	!	!	!	!	!	!	!	!	!	!	!	!	!	!
=34	=34	=34	=34	=34	=34	=34	=34	=34	=34	=34	=34	=34	=34	=34	=34	=34	=34	=34	=34	=34	=34	=34	=34	=34	=34
16BB-/LL	3	.	32f\LLL|	.	32d/LLL|	.	32ff\LLL|	.	8BB-/	Coe-	8d\	Coe-	8b-\	Coe-	8ff\	Coe-	.	8d/L	.	8b-\L|	.	8dd\L	.	8ff\L	.
.	.	.	32f\|	.	32d/|	.	32ff\|	.	.	.	.	.	.	.	.	.	.	.	.	.	.	.	.	.	.
16D/	.	.	32d\|	.	32f/|	.	32dd\|	.	.	.	.	.	.	.	.	.	.	.	.	.	.	.	.	.	.
.	.	.	32d\JJJ|	.	32f/JJJ|	.	32dd\JJJ|	.	.	.	.	.	.	.	.	.	.	.	.	.	.	.	.	.	.
16C/	3	.	32e-\LLL|	.	32c/LLL|	.	32ee-\LLL|	.	8C/	-li	8c\	-li	8a\	-li	8ee-\	-li	.	8f/	.	(8cc\	.	8cc\	.	8ee-\	.
.	.	.	32e-\|	.	32c/|	.	32ee-\|	.	.	.	.	.	.	.	.	.	.	.	.	.	.	.	.	.	.
16E-/	.	.	32c\|	.	32e-/|	.	32cc\|	.	.	.	.	.	.	.	.	.	.	.	.	.	.	.	.	.	.
.	.	.	32c\JJJ|	.	32e-/JJJ|	.	32cc\JJJ|	.	.	.	.	.	.	.	.	.	.	.	.	.	.	.	.	.	.
!	!	!	!	!	!	!	!LO:LB:g=original	!	!	!	!	!	!	!	!	!	!	!	!	!	!	!	!	!	!
16D/	3	.	32d\LLL|	.	32B-/LLL|	.	32dd\LLL|	.	8D/	et	8B-\	et	8b-\	et	8dd\	et	.	8b-/J	.	8dd\J)	.	8b-\J	.	8dd\J	.
.	.	.	32d\|	.	32B-/|	.	32dd\|	.	.	.	.	.	.	.	.	.	.	.	.	.	.	.	.	.	.
16F/JJ	.	.	32B-\|	.	32d/|	.	32b-\|	.	.	.	.	.	.	.	.	.	.	.	.	.	.	.	.	.	.
.	.	.	32B-\JJJ|	.	32d/JJJ|	.	32b-\JJJ|	.	.	.	.	.	.	.	.	.	.	.	.	.	.	.	.	.	.
=35	=35	=35	=35	=35	=35	=35	=35	=35	=35	=35	=35	=35	=35	=35	=35	=35	=35	=35	=35	=35	=35	=35	=35	=35	=35
!LO:TX:t=P:problem:mixed beam	!	!	!	!	!	!	!	!	!LO:TX:t=P:problem:mixed beam	!	!	!	!	!	!	!	!	!	!	!	!	!	!	!	!
16E-\LL	6	.	8g\L	.	(16f/LL	.	(16dd\LL	.	8E-\L	ter-	8G/	ter-	16f\LL	ter-	(16dd\LL	ter-	.	8r	.	8r	.	(16f/LL	.	(16dd\LL	.
16C\	.	.	.	.	16e-/JJ)	.	16cc\J)	.	.	.	.	.	16e-\J	.	16cc\J)	.	.	.	.	.	.	16e-/J)	.	16cc\J)	.
16F\	4	.	8f\	.	8d/L	.	8b-\'	.	8F\	.	4F/	.	8d\	.	8b-\	.	.	8b-\L	.	8dd\L	.	8d/	.	8b-\	.
16En\	.	.	.	.	.	.	.	.	.	.	.	.	.	.	.	.	.	.	.	.	.	.	.	.	.
16F\	3	.	8f\J	.	8c/J	.	8a\J'	.	8FF/J	.	.	.	8c\J	.	8a\J	.	.	8f\J	.	8cc\J	.	8c/J	.	8a\J	.
16FF/JJ	.	.	.	.	.	.	.	.	.	.	.	.	.	.	.	.	.	.	.	.	.	.	.	.	.
=36	=36	=36	=36	=36	=36	=36	=36	=36	=36	=36	=36	=36	=36	=36	=36	=36	=36	=36	=36	=36	=36	=36	=36	=36	=36
8BB-/	3	.	(16B-/LL	.	(16B-/LL	.	(16B-/LL	.	8BB-/	-ra	8F/	-ra	8d\	-ra	8b-\	-ra	.	8B-/	.	8b-\	.	8d/	.	8b-\	.
.	.	.	16A/	.	16A/	.	16A/	.	.	.	.	.	.	.	.	.	.	.	.	.	.	.	.	.	.
8r	.	.	16B-/)	.	16B-/)	.	16B-/)	.	8r	.	8r	.	8r	.	8r	.	.	8r	.	8r	.	8r	.	8r	.
.	.	.	16c/|	.	16c/|	.	16c/|	.	.	.	.	.	.	.	.	.	.	.	.	.	.	.	.	.	.
!	!	!	!	!	!	!	!	!	!	!	!	!	!	!	!	!	!	!	!	!LO:TX:a:t=bis	!	!	!	!	!
8r	.	.	16d/|	.	16d/|	.	16d/|	.	8r	.	8r	.	8r	.	8r	.	.	8r	.	8r	.	8r	.	8r	.
.	.	.	16e-/JJ|	.	16e-/JJ|	.	16e-/JJ|	.	.	.	.	.	.	.	.	.	.	.	.	.	.	.	.	.	.
!	!	!	!	!	!	!	!	!	!	!	!	!	!LO:LB:g=original	!	!	!	!	!	!	!	!	!	!	!	!
=37	=37	=37	=37	=37	=37	=37	=37	=37	=37	=37	=37	=37	=37	=37	=37	=37	=37	=37	=37	=37	=37	=37	=37	=37	=37
!	!	!	!	!	!	!	!	!	!LO:TX:a:t=3	!	!LO:TX:a:t=3	!	!LO:TX:a:t=3	!	!LO:TX:a:t=3	!	!	!	!	!	!	!LO:TX:a:t=i	!	!LO:TX:a:t=i	!
8F\	.	.	(16f\LL	.	(16f/LL	.	(16f/LL	.	2.r	.	2.r	.	2.r	.	2.r	.	.	8F/	.	8f/	.	4.r	.	4.r	.
.	.	.	16en\	.	16en/	.	16en/	.	.	.	.	.	.	.	.	.	.	.	.	.	.	.	.	.	.
8r	.	.	16f\)	.	16f/)	.	16f/)	.	.	.	.	.	.	.	.	.	.	8r	.	8r	.	.	.	.	.
.	.	.	16g\|	.	16g/|	.	16g/|	.	.	.	.	.	.	.	.	.	.	.	.	.	.	.	.	.	.
8r	.	.	16a\|	.	16a/|	.	16a/|	.	.	.	.	.	.	.	.	.	.	8r	.	8r	.	.	.	.	.
.	.	.	16f\JJ|	.	16f/JJ|	.	16f/JJ|	.	.	.	.	.	.	.	.	.	.	.	.	.	.	.	.	.	.
!	!	!	!	!	!	!	!	!	!	!	!	!	!	!	!	!	!	!	!	!	!	!LO:LB:g=original	!	!	!
=38	=38	=38	=38	=38	=38	=38	=38	=38	=38	=38	=38	=38	=38	=38	=38	=38	=38	=38	=38	=38	=38	=38	=38	=38	=38
!LO:TX:b:t=unis	!	!	!	!	!	!	!	!	!	!	!	!	!	!	!	!	!	!	!	!LO:TX:t=P:problem:fragment oznaczony znakiem repetycji adnotacja "bis"	!	!	!	!	!
16BB-/LL|	8	.	(16B-\LL	.	(16b-\LL	.	(16b-\LL	.	.	.	.	.	.	.	.	.	.	8B-/	.	8b-\yy	.	(16b-\LL	.	(16b-\LL	.
16AA/|	8	.	16A\	.	16a\	.	16a\	.	.	.	.	.	.	.	.	.	.	.	.	.	.	16a\	.	16a\	.
16BB-/|	8	.	16B-\)	.	16b-\)	.	16b-\)	.	.	.	.	.	.	.	.	.	.	8r	.	8ryy	.	16b-\)	.	16b-\)	.
16C/|	.	.	16c\|	.	16cc\|	.	16cc\|	.	.	.	.	.	.	.	.	.	.	.	.	.	.	16cc\	.	16cc\|	.
16D/|	.	.	16d\|	.	16dd\|	.	16dd\|	.	.	.	.	.	.	.	.	.	.	8r	.	8ryy	.	16dd\	.	16dd\|	.
16E-/JJ|	.	.	16e-X\JJ|	.	16ee-X\JJ|	.	16ee-X\JJ|	.	.	.	.	.	.	.	.	.	.	.	.	.	.	16ee-\JJ	.	16ee-\JJ|	.
!	!	!	!LO:LB:g=original	!	!	!	!	!	!	!	!	!	!	!	!	!	!	!	!	!	!	!	!	!	!
=39	=39	=39	=39	=39	=39	=39	=39	=39	=39	=39	=39	=39	=39	=39	=39	=39	=39	=39	=39	=39	=39	=39	=39	=39	=39
16F\LL|	.	.	(16f\LL	.	(16ff\LL	.	(16ff\LL	.	4.r	.	4.r	.	4.r	.	4.r	.	.	8F/	.	8f/yy	.	(16ff\LL	.	(16ff\LL	.
16En\|	.	.	16en\	.	16een\	.	16een\	.	.	.	.	.	.	.	.	.	.	.	.	.	.	16eeX\	.	16eeX\	.
16F\|	.	.	16f\)	.	16ff\)	.	16ff\)	.	.	.	.	.	.	.	.	.	.	8r	.	8ryy	.	16ff\)	.	16ff\)	.
16G\|	.	.	16g\|	.	16gg\|	.	16gg\'	.	.	.	.	.	.	.	.	.	.	.	.	.	.	16gg\	.	16gg\|	.
16A\|	8	.	16a\|	.	16aa\|	.	16aa\'	.	.	.	.	.	.	.	.	.	.	8r	.	8ryy	.	16aa\	.	16aa\|	.
16F\JJ|	8	.	16f\JJ|	.	16ff\JJ|	.	16ff\JJ'	.	.	.	.	.	.	.	.	.	.	.	.	.	.	16ff\JJ	.	16ff\JJ|	.
!LO:LB:g=original	!	!	!	!	!	!	!	!	!	!	!	!	!	!	!	!	!	!	!	!	!	!	!	!	!
=40	=40	=40	=40	=40	=40	=40	=40	=40	=40	=40	=40	=40	=40	=40	=40	=40	=40	=40	=40	=40	=40	=40	=40	=40	=40
8B-\L	8	.	16b-\|	.	16r	.	16r	.	8B-\	glo-	8B-\	glo-	8b-\	glo-	8b-\	glo-	.	8B-/	.	8b-\	.	16r	.	16r	.
.	.	.	16r	.	16b-\|	.	16bb-\|	.	.	.	.	.	.	.	.	.	.	.	.	.	.	16b-\|	.	16bb-\|	.
8G\	.	.	16g\|	.	16r	.	16r	.	8G\	-ri-	8f\	-ri-	8g\	-ri-	8gg\	-ri-	.	8r	.	8r	.	16r	.	16r	.
.	.	.	16r	.	16g/|	.	16gg\|	.	.	.	.	.	.	.	.	.	.	.	.	.	.	16g/|	.	16gg\|	.
!	!	!	!	!	!	!	!	!	!	!	!	!	!	!	!LO:LB:g=original	!	!	!	!	!	!	!	!	!	!
8D\J	.	.	16d\|	.	16r	.	16r	.	8D\	-a	8d\	-a	8d\	-a	8dd\	-a	.	8r	.	8r	.	16r	.	16r	.
.	.	.	16r	.	16d/|	.	16dd\|	.	.	.	.	.	.	.	.	.	.	.	.	.	.	16d/|	.	16dd\|	.
!	!	!	!	!	!LO:LB:g=original	!	!LO:LB:g=original	!	!	!	!	!	!	!	!	!	!	!LO:LB:g=original	!	!	!	!	!	!LO:LB:g=original	!
=41	=41	=41	=41	=41	=41	=41	=41	=41	=41	=41	=41	=41	=41	=41	=41	=41	=41	=41	=41	=41	=41	=41	=41	=41	=41
8E-\L	.	.	16e-\|	.	16r	.	16r	.	8E-\L	tu-	8e-\L	tu-	(8e-\L	tu-	(8ee-\L	tu-	.	8r	.	8r	.	16r	.	16r	.
.	.	.	16r	.	16e-/	.	16ee-\|	.	.	.	.	.	.	.	.	.	.	.	.	.	.	16e-/|	.	16ee-\|	.
8C\	.	.	16c\|	.	16r	.	16r	.	8C\	.	8c\	.	8c\)	.	8cc\	.	.	8r	.	8r	.	16r	.	16r	.
.	.	.	16r	.	16c/	.	16cc\|	.	.	.	.	.	.	.	.	.	.	.	.	.	.	16c/|	.	16cc\|	.
8F\J	.	.	16f\|	.	16r	.	16r	.	8F\J	.	8f\J	.	8f\J	.	8ff\J)	.	.	8f/	.	8cc\	.	16r	.	16r	.
.	.	.	16r	.	16f/	.	16ff\|	.	.	.	.	.	.	.	.	.	.	.	.	.	.	16f/|	.	16ff\|	.
=42	=42	=42	=42	=42	=42	=42	=42	=42	=42	=42	=42	=42	=42	=42	=42	=42	=42	=42	=42	=42	=42	=42	=42	=42	=42
!LO:TX:t=P:problem:mixed beam	!	!	!	!	!LO:TX:t=P:problem:mixed beam	!	!	!	!	!	!	!	!	!	!	!	!	!	!	!	!	!LO:TX:t=P:problem:mixed beam	!	!	!
16BB-/LL	5_ 3_	.	8f\L	.	8B-/L	.	8b-\L	.	4B-\	-a	4B-\	-a.	4b-\	-a.	4b-\	-a.	.	8b-\L	.	8dd\L	.	8B-/L	.	(8b-\L	.
16B-\	.	.	.	.	.	.	.	.	.	.	.	.	.	.	.	.	.	.	.	.	.	.	.	.	.
16F\	.	.	8f\	.	8dd\	.	8bb-\	.	.	.	.	.	.	.	.	.	.	8b-\	.	8dd\	.	8dd\|	.	8bb-\)	.
16B-\	.	.	.	.	.	.	.	.	.	.	.	.	.	.	.	.	.	.	.	.	.	.	.	.	.
16D\	.	.	8f\J	.	8dd\J	.	8bb-\J	.	8r	.	8r	.	8r	.	8r	.	.	8b-\J	.	8dd\J	.	8dd\J|	.	8bb-\J|	.
16F\JJ	.	.	.	.	.	.	.	.	.	.	.	.	.	.	.	.	.	.	.	.	.	.	.	.	.
=43	=43	=43	=43	=43	=43	=43	=43	=43	=43	=43	=43	=43	=43	=43	=43	=43	=43	=43	=43	=43	=43	=43	=43	=43	=43
!	!	!	!	!	!	!	!	!	!	!	!	!	!	!	!LO:TX:b:t=Volti Subito Benedictus	!	!	!	!	!	!	!	!	!	!
!	!	!	!	!	!	!	!	!	!LO:TX:a:t=i	!	!LO:TX:a:t=i	!	!LO:TX:a:t=i	!	!LO:TX:a:t=i	!	!	!	!	!	!	!	!	!	!
4BB-/	x x	.	4f\	.	4dd/ 4f/ 4B-/	.	4bb-\ 4b-\ 4d\	.	4.r	.	4.r	.	4.r	.	4.r	.	.	4b-\	.	4dd\	.	4dd\	.	4bb-\	.
!	!	!	!	!	!	!	!	!	!	!	!	!	!	!	!	!	!	!	!	!LO:TX:b:t=Volti Bendictus	!	!	!	!	!
8r	.	.	8r	.	8r	.	8r	.	.	.	.	.	.	.	.	.	.	8r	.	8r	.	8r	.	8r	.
==	==	==	==	==	==	==	==	==	==	==	==	==	==	==	==	==	==	==	==	==	==	==	==	==	==
*-	*-	*-	*-	*-	*-	*-	*-	*-	*-	*-	*-	*-	*-	*-	*-	*-	*-	*-	*-	*-	*-	*-	*-	*-	*-
!!!system-decoration: [(g1)][(g2)][(g3)][(g4)]s12
!!!RDF**dynam: f = "fort"
!!!RDF**dynam: p = "pia"
!!!RDF**kern: | = vertical stroke
!!!RDF**kern: > = above
!!!RDF**kern: < = below
!!!ENC: Andrzej Kubiczek
!!!END: 2020-11-01
!!!EED: Andrzej Borzym
!!!EEV: 2022-04-21
